X: 020219
T: Bob le Sueur's Fancy
S: Kirk Lynch
Z: B.Black
R: jig
M: 6/8
L: 1/8
K: Dmix
ded cAG | A3 BGE | D3 DEG | A3 cAG |
ded cAG | A3 BGE | D3 AGE | FGA D3 :|
ded fed | cAG c2 d | ded cAG | ^F3 AFD |
ded fed | cAG c2 d | fed cAG | FGA D3 :|
